!!!COM: Bach, Johann Sebastian
!!!OPR: Joh. Seb. Bachs vierstimmige Choralges‰nge
!!!XEN: Four-part Chorales
!!!OTL: 127. Meinen Jesum lass' ich nicht, weil
!!!SCT: BWV 380
!!!SCA: Thematisch-systematisches Verzeichnis der musikalischen Werke Johann Sebastian Bach: Bach-Werke-Verzeichnis (Schmieder)
!!!YOR: Bach Gesellschaft Edition xxxix
!!!ENC: Steven Rasmussen
!!!CDT: 1685/3//-1750/7/28/
!!!OCY: Deutschland
!!!YEC: Copyright (c) 1994, 2000 Center for Computer Assisted Research in the Humanities
!!!YEM: Rights to all derivative editions reserved
!!!YEN: United States of America
**kern	**silbe	**kern	**kern	**kern
*I:[SOPRANO]	*I:[SOPRANO]	*I:[ALTO]	*I:[TENORE]	*I:[BASSO]
*clefG2	*	*clefG2	*clefGv2	*clefF4
*k[b-e-a-]	*	*k[b-e-a-]	*k[b-e-a-]	*k[b-e-a-]
*E-:	*	*E-:	*E-:	*E-:
*M4/4	*	*M4/4	*M4/4	*M4/4
=1-	=1-	=1-	=1-	=1-
4b-	Mei-	4g	4e-	8E-L
.	.	.	.	8FJ
4b-	-nen	4g	4e-	8GL
.	.	.	.	8E-J
4cc	Je-	4e-	4c	8A-L
.	.	.	.	8GJ
4cc	-sum	4a-	4f	8A-L
.	.	.	.	8FJ
=2	=2	=2	=2	=2
4dd	lass'	8a-L	8fL	4B-
.	.	8gJ	8e-J	.
8ddL	ich	4a-	8fL	4BB-
16ee-L	.	.	8dJ	.
16ffJJ	.	.	.	.
2ee-;	nicht,	2g;	2B-;	2E-;
=3	=3	=3	=3	=3
4ff	weil	4b-	8dL	8BB-L
.	.	.	8e-J	8CJ
4ff	er	8b-L	8fL	8DL
.	.	8a-J	8dJ	8BB-J
4ee-	sich	4g	8dL	8CL
.	.	.	16cL	8DJ
.	.	.	16BnJJ	.
4ee-	f√ºr	8gL	4c	8E-L
.	.	8anJ	.	8FJ
=4	=4	=4	=4	=4
4dd	mich	8b-L	4B-	8GL
.	.	8anJ	.	8FJ
8ccL	ge-	8gL	4B-	8E-L
16ddL	.	8e-J	.	8CJ
16ee-JJ	.	.	.	.
2cc	-ge-	4.f	8B-L	4F
.	.	.	8GJ	.
.	.	.	4An	4FF
.	.	8e-	.	.
=5	=5	=5	=5	=5
2b-;	-ben:	2d;	2F;	2BB-;
4b-	so	4e-	8GL	8E-L
.	.	.	8A-J	8FJ
4b-	er-	4e-	8B-L	8GL
.	.	.	8GJ	8E-J
=6	=6	=6	=6	=6
4cc	-for-	4e-	8A-L	8A-L
.	.	.	8B-J	8GJ
4cc	-dert	4a-	4c	8FL
.	.	.	.	8E-J
4b-	mei-	8a-L	8FL	8DL
.	.	8gJ	8GJ	8EnJ
8a-L	-ne	4f	8A-L	4F
8gJ	.	.	8B-J	.
=7	=7	=7	=7	=7
2g;	Pflicht,	2en;	2c;	2C;
4b-	klet-	8eL	8B-L	8GL
.	.	8fJ	8A-J	8FJ
4b-	-ten-	8gL	4G	8EnL
.	.	8eJ	.	8CJ
=8	=8	=8	=8	=8
4a-	-weis	4c	4A-	8FL
.	.	.	.	8E-J
4a-	an	8fL	4B-	8DL
.	.	8dJ	.	8BB-J
4g	ihm	4e-	4B-	8E-L
.	.	.	.	8GJ
8fL	zu	4e-	8cL	8A-L
16gL	.	.	8A-J	8FJ
16a-JJ	.	.	.	.
=9	=9	=9	=9	=9
2f	kle-	4e-	8B-L	4B-
.	.	.	8GJ	.
.	.	4d	4A-	4BB-
2e-;	-ben.	2B-;	2G;	2E-;
=10	=10	=10	=10	=10
4b-	Er	4g	4e-	8e-L
.	.	.	.	8d-J
4b-	ist	4g	4e-	8cL
.	.	.	.	8B-J
4cc	mei-	4a-	4e-	8A-L
.	.	.	.	8GJ
4cc	-nes	8a-L	4f	8FL
.	.	8gJ	.	8E-J
=11	=11	=11	=11	=11
4dd	Le-	4f	8BnL	8DL
.	.	.	8cJ	8CJ
8ddL	-bens	4g	8dL	8BBnL
16ee-L	.	.	8BJ	8GGJ
16ffJJ	.	.	.	.
2ee-;	Licht,	2g;	2c;	2C;
=12	=12	=12	=12	=12
4b-	mei-	4e-	4G	8E-L
.	.	.	.	8D-J
8b-L	-nen	4e-	4G	8CL
16ccL	.	.	.	8BB-J
16dd-JJ	.	.	.	.
8ccL	Je-	8e-L	8A-L	8AA-L
8b-J	.	8dJ	8FJ	8BB-J
8a-L	-sum	4e-	8E-L	8CL
8gJ	.	.	8B-J	8BB-J
=13	=13	=13	=13	=13
8fL	lass'	4e-	4c	4AA-
16gL	.	.	.	.
16a-JJ	.	.	.	.
4f	ich	4d	8B-L	4BB-
.	.	.	8A-J	.
2e-;	nicht.	2B-;	2G;	2E-;
==|!	==|!	==|!	==|!	==|!
*-	*-	*-	*-	*-
!!!RWG: Key is interpreted using the Humdrum key tool.
!!!END: 1994/07/18
!!!EMD: Converted from MuseData to Humdrum Dec 19, 2000, by Andreas Kornstaedt using muse2kern.
!!!EED: Craig Stuart Sapp
!!!EEV: 2024/03/31
!!!ONB: Some non-unicode characters
